X:139
T:Irish Man's Choice. JJo8.139, The
%%VWML:JohnsonVol8-2184-p70-0
F:http://www.vwml.org/record/JohnsonVol8/2184/p70
Z:Transcribed by Simon Furey and Lewis Jones
Z:vmp.Simon Wilson 2013 www.village-music-project.org.uk
Z:Dance added by John Chambers 2017
T:My Mind Will Never Be Easy,aka. JJo8.139
T:Woo'd and Married and a',aka. JJo8.139
M:9/8
L:1/8
%Q:3/8=130
K:F
|: d |\
cAA AGA FGA | c2c cdc ccd |\
cAA AGA FGA | D2d de^cd2 :|
|: d/c/ |\
A2f fgf ffA | ccc cdc ccd |\
cAA AGA FEF | D2d de^c | dcd :|
|:\
A2A AGAF3 | ABc ccc def |\
AGA AGA FEF | D2d de^cd2 :|
W: The 1st Cu. 3 hands round with the 2d
W:Wo. .| the same with th 2d Man ..| Cross
W:over two Cu. .| Lead up to the top and
W:cast off ..| Hands 4 across at Bottom .|
W:Right and Left at top ..|
W:
T:Litchfield Races. JJo8.140
B:J.Johnson Choice Collection Vol 8 1758
Z:vmp.Simon Wilson 2013 www.village-music-project.org.uk
Z:Dance added by John Chambers 2017
M:6/8
L:1/8
%Q:3/8=120
K:G
|:\
G2GG2B | dBG AFD | G2GG2B | dBGA2D |\
G2GG2B | dBG AFD | BdB cAF | G/G/GGG3 :|
|:\
gdB gdB | cec dBG | gdB gdB | A/A/AAA2f |\
gdB gdB | cec dBG | cec BdB | G/G/GGG3 :|
W: The 1st Cu. lead down two and cast
W:up, the 2d and 3d Cu. follows .|
W:hands four round at top ..| Back to
W:Back and cast off one Cu. .| and
W:right hands and left at top ..|
W:
